X:1
T:Der evangelische Kirchenchor
T:Mit Fried umidnd Freud ich fahr dahin
T:Max Reger
T:Text: Martin Luther
T:Mit Fried und Freud ich fahr dahin
T:Nr. 8 aus Der evangelische Kirchenchor, WoO VI/17 
T:CPDL - Creative Commons Attribution Non Commercial 3.0
T:CPDL - Creative Commons Attribution Non Commercial 3.0
C:Max Reger
Z:Martin Luther
Z:CPDL - Creative Commons Attribution Non Commercial 3.0
%%score [ ( 1 2 ) ( 3 4 ) ]
L:1/8
Q:1/4=90
M:4/4
K:G
V:1 treble nm="Sopran\nAlt"
V:2 treble 
V:3 bass nm="Tenor\nBass"
V:4 bass 
V:1
"^Nicht zu lagnsam"!p!!<(! E4 B2 B2!<)! | A2 e2!>(! d2 ^c2 | B4!>)!!<(! d4!<)! | (B2 d2) ^c4 | %4
w: 1.~Mit Fried' und|Freud' ich fahr' da-|hin in|Gotts _ Wil-|
w: 2.~Das macht Chris-|tus, wahr’ Got- tes|Sohn, der|treu' _ Hei-|
!>(! B6!>)!!mf!!<(! B2 | d3 ^c d2!<)! B2 | AG!>(! F2 E4!>)! |!p! B3 A!>(! (GF E2)!>)! | %8
w: le. Ge-|trost ist mir mein|Herz _ und Sinn,|sanft und stil- * *|
w: land, den|du mich, Herr, hast|se- * hen lan|und machst be- * *|
!pp! D4!p!!<(! BA G2 | d=c B2 A2 A2!<)! |!f! B6!p!!<(! A2 | %11
w: le; wie _ Gott|mir _ ver- hei- ßen|hat: der|
w: kannt, dass _ er|sei _ das Le- ben|mein und|
 G2!<)![Q:1/4=80]"^poco rit." E2 D2!>(! G2 | F4!>)!!pp! !fermata!E4 |] %13
w: Tod ist mein Schlaf|wor- den.|
w: Heil in Not und|Ster- ben.|
V:2
 B,4 B,2 G2 | F2 G2 F2 EF | G4 A4 | (G2 A2) (G2 FE) | ^D6 E2 | F3 F F2 GF | E2 B,A, G,4 | %7
 D3 D (ED ^C2) | A,4 D2 E2 | D2 ED CD E2 | ^D6 =D^C | B,2 ^C2 B,2 E2 | (E2 ^D2) B,4 |] %13
V:3
 G,4 F,2 D2 | D^C B,2 A,B, C^D | E4 D4 | (DE F2) (E2 ^A,2) | F,6 G,2 | A,3 ^A, B,^C D2 | %6
w: 3.~Den hast du|al- * len vor- * ge- *|stellt mit|groß' _ _ Gna- *|den, zu|sei- nem Reich _ die|
w: 4.~Er ist das|hell _ und se- * lig _|Licht für|die _ _ Hei- *|den, zu~er-|leuch- ten, die _ dich|
 ^C2 ^D2 B,4 | G,3 A, (B,A, G,2) | F,4 G,2 G,A, | B,A, G,2 A,2 A,2 | ^F,6 F,2 | G,2 A,G, F,2 B,2 | %12
w: gan- ze Welt|hei- ßen la- * *|den durch dein _|teu- * er heil- sam|Wort, an|al- lem _ Ort er-|
w: ken- nen nicht,|und zu wei- * *|den. Er ist _|deins _ Volks Is- ra-|el der|Preis, Ehr, _ Freud *|
 (C2 B,A,) !fermata!^G,4 |] %13
w: schol- * * len.|
w: * * * ne.|
V:4
 E,4 D,2 B,,^C, | D,2 E,2 F,G, A,2 | E,4 F,4 | (G,2 D,2) (E,2 F,2) | B,,6 E,2 | D,3 F, B,=A, G,2 | %6
w: ||||||
w: ||||||
 A,2 B,2 E,4 | G,3 F, (E,2 A,,2) | D,4 G,,2 C,2 | B,,2 E,2 =F,2 C,2 | B,,6 D,2 | %11
w: |||||
w: |||||
 E,2 A,,2 B,,2 G,,2 | (A,,2 B,,2) E,4 |] %13
w: ||
w: * * * und|Won- * *|

